**kern	**kern	**dynam
*part1	*part1	*part1
*staff2	*staff1	*
*I"Piano	*	*
*clefF4	*clefG2	*
*k[b-e-a-]	*k[b-e-a-]	*
=1	=1	=1
2E-	4G 4e-	.
.	4B- 4e- 4g	.
=	=	=
4G	4B- 4e- 4b-	.
4G	4B- 4e- 4b-	.
=	=	=
4F	4B- 4e- 4a-	.
4F	4B- 4d 4a-	<
=	=	=
4A- 4B-	4d 4cc	.
4A- 4B-	4d 4b-	.
=	=	=
4G 4B-	4f 4b-	.
4G	4d-X 4e- 4bn	.
=	=	=
4A-	4c 4e- 4cc	.
4An 4c	4f#X 4ee-	.
=	=	=
4B-	4g 4ee-	.
4BB- 4G	4e- 4b-	[ >
=	=	=
4BB- 4F	4e- 4a-	.
4BB- 4A-	4d 4f	.
=	=	=
4E- 4G	4e-	.
4E- 4G	4B- 4e-	.
=	=	=
4AA- 4A-	4c 4e-	.
*^	*	*
4AA-	4F 4A-	4c-X 4e-	.
*v	*v	*	*
=	=	=
2EE-; 2BB- 2E- 2G	2B-; 2e-	]
==	==	==
*-	*-	*-
!!!system-decoration: {(s1,s2)}
